static/logos/mapbox-wordmark-color.svg

<svg width="100" height="24" viewBox="0 0 100 24" fill="none" xmlns="http://www.w3.org/2000/svg">
<g clip-path="url(#clip0_1_2065)">
<path d="M74.4921 6.97543C73.8718 6.97658 73.2581 7.10221 72.6873 7.34487C72.1165 7.58753 71.6002 7.94229 71.1691 8.38812V3.62622C71.1682 3.5531 71.1386 3.48326 71.0866 3.43185C71.0346 3.38044 70.9644 3.35161 70.8913 3.35161H69.1984C69.1253 3.35161 69.0551 3.38044 69.0031 3.43185C68.9511 3.48326 68.9215 3.5531 68.9206 3.62622V16.5C68.9215 16.5731 68.9511 16.643 69.0031 16.6944C69.0551 16.7458 69.1253 16.7746 69.1984 16.7746H70.8913C70.9644 16.7746 71.0346 16.7458 71.0866 16.6944C71.1386 16.643 71.1682 16.5731 71.1691 16.5V15.6127C71.5995 16.0595 72.1156 16.4148 72.6866 16.6574C73.2576 16.9 73.8717 17.0249 74.4921 17.0246C77.1325 17.0246 79.2675 14.7746 79.2675 12C79.2675 9.22543 77.1325 6.97543 74.4921 6.97543ZM74.1008 15.0119C72.496 15.0119 71.1945 13.6873 71.1825 12.0373V11.9619C71.2079 10.3119 72.4968 8.98733 74.1008 8.98733C75.7183 8.98733 77.0191 10.3373 77.0191 11.9992C77.0191 13.6611 75.7048 15.0111 74.1008 15.0111V15.0119ZM85.4968 6.97543C82.6413 6.97543 80.3294 9.22543 80.3294 12C80.3294 14.7746 82.6413 17.0246 85.4968 17.0246C88.3524 17.0246 90.6643 14.7746 90.6643 12C90.6643 9.22543 88.3524 6.97543 85.4968 6.97543ZM85.4841 15.0119C83.8667 15.0119 82.5659 13.6619 82.5659 12C82.5659 10.3381 83.8794 8.98812 85.4841 8.98812C87.0889 8.98812 88.4024 10.3381 88.4024 12C88.4024 13.6619 87.0889 15.0119 85.4841 15.0119ZM53.8984 7.22543H52.2056C52.1324 7.22542 52.0623 7.25425 52.0103 7.30566C51.9583 7.35707 51.9286 7.42691 51.9278 7.50003V8.38733C51.4974 7.9404 50.9813 7.58493 50.4103 7.34219C49.8393 7.09944 49.2252 6.97443 48.6048 6.97463C45.9643 6.97463 43.8294 9.22463 43.8294 11.9992C43.8294 14.7738 45.9643 17.0238 48.6048 17.0238C49.225 17.0227 49.8387 16.8971 50.4095 16.6544C50.9803 16.4117 51.4966 16.057 51.9278 15.6111V16.4984C51.9286 16.5716 51.9583 16.6414 52.0103 16.6928C52.0623 16.7442 52.1324 16.7731 52.2056 16.773H53.8984C53.9715 16.7731 54.0417 16.7442 54.0937 16.6928C54.1457 16.6414 54.1754 16.5716 54.1762 16.4984V7.50082C54.1754 7.4277 54.1457 7.35786 54.0937 7.30645C54.0417 7.25504 53.9715 7.22621 53.8984 7.22622V7.22543ZM48.996 15.0119C47.3786 15.0119 46.0778 13.6619 46.0778 12C46.0778 10.3381 47.3921 8.98812 48.996 8.98812C50.6 8.98812 51.9016 10.3127 51.9143 11.9627V12.0381C51.9016 13.6881 50.6 15.0127 48.996 15.0127V15.0119ZM62.3508 6.97543C61.7306 6.97658 61.1169 7.10221 60.5461 7.34487C59.9753 7.58753 59.459 7.94229 59.0278 8.38812V7.50082C59.0269 7.4277 58.9973 7.35786 58.9453 7.30645C58.8933 7.25504 58.8231 7.22621 58.75 7.22622H57.0571C56.984 7.22621 56.9138 7.25504 56.8618 7.30645C56.8098 7.35786 56.7802 7.4277 56.7794 7.50082V20.3738C56.7802 20.447 56.8098 20.5168 56.8618 20.5682C56.9138 20.6196 56.984 20.6484 57.0571 20.6484H58.75C58.8231 20.6484 58.8933 20.6196 58.9453 20.5682C58.9973 20.5168 59.0269 20.447 59.0278 20.3738V15.6119C59.4581 16.0589 59.9743 16.4143 60.5453 16.6571C61.1163 16.8998 61.7304 17.0248 62.3508 17.0246C64.9913 17.0246 67.1262 14.7746 67.1262 12C67.1262 9.22543 64.9913 6.97543 62.3508 6.97543ZM61.9595 15.0119C60.3548 15.0119 59.0532 13.6873 59.0413 12.0373V11.9619C59.0667 10.3119 60.3556 8.98733 61.9595 8.98733C63.577 8.98733 64.8778 10.3373 64.8778 11.9992C64.8778 13.6611 63.5762 15.0111 61.9595 15.0111V15.0119ZM38.7627 6.97543C38.144 6.98028 37.539 7.1585 37.0164 7.48986C36.4938 7.82122 36.0746 8.29244 35.8064 8.85003C35.1873 7.68733 33.9492 6.96273 32.6222 6.97543C32.1131 6.97624 31.6113 7.09651 31.1571 7.32657C30.7029 7.55662 30.309 7.89005 30.0071 8.30003V7.50082C30.0063 7.4277 29.9767 7.35786 29.9247 7.30645C29.8727 7.25504 29.8025 7.22621 29.7294 7.22622H28.0365C27.9634 7.22621 27.8932 7.25504 27.8412 7.30645C27.7892 7.35786 27.7596 7.4277 27.7587 7.50082V16.5C27.7596 16.5731 27.7892 16.643 27.8412 16.6944C27.8932 16.7458 27.9634 16.7746 28.0365 16.7746H29.7294C29.8025 16.7746 29.8727 16.7458 29.9247 16.6944C29.9767 16.643 30.0063 16.5731 30.0071 16.5V11.1135C30.0706 9.91352 30.9167 8.95162 31.9532 8.95162C33.027 8.95162 33.9238 9.83892 33.9238 11.0016V16.5008C33.9246 16.5739 33.9543 16.6438 34.0063 16.6952C34.0583 16.7466 34.1285 16.7754 34.2016 16.7754H35.9071C35.9803 16.7754 36.0504 16.7466 36.1024 16.6952C36.1545 16.6438 36.1841 16.5739 36.1849 16.5008L36.1722 10.9016C36.3238 9.80162 37.1198 8.95162 38.0929 8.95162C39.1667 8.95162 40.0635 9.83892 40.0635 11.0016V16.5008C40.0643 16.5739 40.094 16.6438 40.146 16.6952C40.198 16.7466 40.2682 16.7754 40.3413 16.7754H42.0468C42.12 16.7754 42.1901 16.7466 42.2421 16.6952C42.2941 16.6438 42.3238 16.5739 42.3246 16.5008L42.3119 10.3143C42.3119 8.46431 40.7198 6.97701 38.7619 6.97701L38.7627 6.97543ZM99.773 16.3865L96.8421 11.9746L99.7476 7.60003C99.8238 7.48733 99.7857 7.32543 99.6722 7.25003C99.6341 7.22463 99.5841 7.21273 99.5333 7.21273H97.5746C97.423 7.21273 97.2841 7.28733 97.2087 7.41273L95.5032 10.25L93.7968 7.42543C93.7214 7.30082 93.5825 7.22543 93.431 7.22543H91.4722C91.3333 7.22543 91.2198 7.33812 91.2198 7.47542C91.2198 7.52542 91.2325 7.57543 91.2579 7.61273L94.1635 11.9873L91.2326 16.3992C91.1564 16.5119 91.1944 16.6738 91.3079 16.7492C91.3499 16.7744 91.398 16.7873 91.4468 16.7865H93.4056C93.5572 16.7865 93.696 16.7111 93.7722 16.5865L95.5151 13.7119L97.2587 16.5865C97.3349 16.7119 97.4738 16.7865 97.6254 16.7865H99.5587C99.6976 16.7865 99.8111 16.6738 99.8111 16.5365C99.8111 16.4865 99.7984 16.4365 99.773 16.3865ZM11.2317 0.888916C5.02857 0.888916 0 5.86352 0 12C0 18.1365 5.02857 23.1111 11.2317 23.1111C17.4349 23.1111 22.4635 18.1365 22.4635 12C22.4635 5.86352 17.4357 0.888916 11.2317 0.888916ZM16.5635 14.7246C12.7222 18.5238 5.86191 17.3119 5.86191 17.3119C5.86191 17.3119 4.62381 10.5381 8.47698 6.72542C10.6119 4.61352 14.15 4.70082 16.3865 6.90003C18.623 9.09923 18.6984 12.6119 16.5635 14.7238V14.7246ZM12.5206 7.40082L11.4214 9.63812L9.16032 10.7254L11.4214 11.8127L12.5206 14.05L13.6198 11.8127L15.8817 10.7254L13.6198 9.63812L12.5206 7.40082Z" fill="black"/>
</g>
<defs>
<clipPath id="clip0_1_2065">
<rect width="100" height="24" fill="white"/>
</clipPath>
</defs>
</svg>

<svg xmlns="http://www.w3.org/2000/svg" width="266.667" height="64" fill="none" viewBox="0 0 100 24"><g clip-path="url(#a)"><path fill="#000" d="M74.492 6.975a4.635 4.635 0 0 0-3.323 1.413V3.626a.278.278 0 0 0-.278-.274h-1.693a.278.278 0 0 0-.277.274V16.5a.278.278 0 0 0 .277.275h1.693a.278.278 0 0 0 .278-.275v-.887a4.61 4.61 0 0 0 3.323 1.412c2.64 0 4.775-2.25 4.775-5.025 0-2.775-2.135-5.025-4.775-5.025Zm-.391 8.037c-1.605 0-2.906-1.325-2.918-2.975v-.075c.025-1.65 1.314-2.975 2.918-2.975 1.617 0 2.918 1.35 2.918 3.012s-1.314 3.012-2.918 3.012Zm11.396-8.037c-2.856 0-5.168 2.25-5.168 5.025 0 2.775 2.312 5.025 5.168 5.025 2.855 0 5.167-2.25 5.167-5.025 0-2.775-2.312-5.025-5.167-5.025Zm-.013 8.037c-1.617 0-2.918-1.35-2.918-3.012s1.313-3.012 2.918-3.012c1.605 0 2.918 1.35 2.918 3.012s-1.313 3.012-2.918 3.012ZM53.898 7.225h-1.692a.278.278 0 0 0-.278.275v.887a4.611 4.611 0 0 0-3.323-1.412c-2.64 0-4.776 2.25-4.776 5.024 0 2.775 2.135 5.025 4.776 5.025a4.633 4.633 0 0 0 3.323-1.413v.887a.278.278 0 0 0 .278.275h1.692a.277.277 0 0 0 .278-.275V7.501a.278.278 0 0 0-.278-.275Zm-4.902 7.787c-1.617 0-2.918-1.35-2.918-3.012s1.314-3.012 2.918-3.012 2.906 1.325 2.918 2.975v.075c-.012 1.65-1.314 2.975-2.918 2.975v-.001Zm13.355-8.037a4.635 4.635 0 0 0-3.323 1.413v-.887a.278.278 0 0 0-.278-.275h-1.693a.278.278 0 0 0-.278.275v12.873a.277.277 0 0 0 .278.274h1.693a.278.278 0 0 0 .278-.274v-4.762a4.61 4.61 0 0 0 3.323 1.413c2.64 0 4.775-2.25 4.775-5.025 0-2.775-2.135-5.025-4.775-5.025Zm-.392 8.037c-1.604 0-2.906-1.325-2.918-2.975v-.075c.026-1.65 1.315-2.975 2.919-2.975 1.617 0 2.918 1.35 2.918 3.012s-1.302 3.012-2.919 3.012ZM38.763 6.975a3.31 3.31 0 0 0-2.957 1.875 3.574 3.574 0 0 0-3.184-1.875A3.254 3.254 0 0 0 30.007 8.3v-.8a.278.278 0 0 0-.278-.274h-1.692a.278.278 0 0 0-.278.275V16.5a.278.278 0 0 0 .277.275h1.693a.278.278 0 0 0 .278-.275v-5.386c.064-1.2.91-2.162 1.946-2.162 1.074 0 1.97.887 1.97 2.05V16.5a.278.278 0 0 0 .279.274h1.705a.278.278 0 0 0 .278-.274l-.013-5.6c.152-1.1.948-1.95 1.92-1.95 1.075 0 1.971.888 1.971 2.05v5.5a.278.278 0 0 0 .278.274h1.706a.278.278 0 0 0 .278-.274l-.013-6.187c0-1.85-1.592-3.337-3.55-3.337v-.002Zm61.01 9.412-2.93-4.412L99.747 7.6a.257.257 0 0 0-.076-.35.253.253 0 0 0-.139-.037h-1.958a.423.423 0 0 0-.366.2l-1.706 2.837-1.706-2.825a.425.425 0 0 0-.366-.2h-1.959a.252.252 0 0 0-.252.25c0 .05.013.1.038.138l2.906 4.374-2.931 4.412a.257.257 0 0 0 .075.35c.042.025.09.038.139.038h1.959c.151 0 .29-.076.366-.2l1.743-2.875 1.744 2.875c.076.125.215.2.366.2h1.934a.252.252 0 0 0 .252-.25c0-.05-.013-.1-.038-.15ZM11.232.889C5.029.889 0 5.864 0 12c0 6.137 5.029 11.111 11.232 11.111 6.203 0 11.232-4.974 11.232-11.111 0-6.136-5.028-11.111-11.232-11.111Zm5.332 13.836c-3.842 3.799-10.702 2.587-10.702 2.587S4.624 10.538 8.477 6.725c2.135-2.111 5.673-2.024 7.91.175 2.236 2.2 2.311 5.712.177 7.824ZM12.52 7.4l-1.1 2.237-2.26 1.087 2.26 1.088 1.1 2.237 1.099-2.237 2.262-1.088-2.262-1.087-1.1-2.237Z"/></g><defs><clipPath id="a"><path fill="#fff" d="M0 0h100v24H0z"/></clipPath></defs></svg>
